public/img/tech-stack/mongodb.svg

<svg width="2025" height="2031" fill="none" xmlns="http://www.w3.org/2000/svg"><path d="M999.526 6.0269 1053.7 107.788c12.19 18.778 25.38 35.4 40.92 50.88 45.57 45.001 88.05 93.03 127.14 143.759 91.8 120.539 153.72 254.402 197.94 399.176 26.52 88.438 40.92 179.159 42 270.896 4.44 274.261-89.58 509.751-279.14 705.471a805.8686 805.8686 0 0 1-99.61 85.14c-18.78 0-27.66-14.4-35.4-27.66a227.9191 227.9191 0 0 1-27.66-79.62c-6.66-33.18-11.04-66.36-8.88-100.62v-15.48c-1.52-3.3-18.082-1525.8998-11.484-1533.7031Z" fill="#599636"/><path d="M999.526 2.6645c-2.221-4.4409-4.441-1.0785-6.662 1.0785 1.079 22.2047-6.661 41.9985-18.779 60.9042-13.322 18.7787-30.959 33.18-48.659 48.6598-98.335 85.139-175.734 187.978-237.717 302.998-82.474 154.798-124.98 320.698-137.034 495.354-5.52 62.997 19.921 285.301 39.778 349.441 54.179 170.27 151.499 312.95 277.558 436.79 30.959 29.82 64.076 57.48 98.335 84.06 9.96 0 11.038-8.88 13.322-15.48 4.367-14.11 7.696-28.53 9.961-43.14l22.201-165.83L999.526 2.6645Z" fill="#6CAC48"/><path d="M1053.7 1830.49c2.23-25.38 14.41-46.44 27.67-67.44-13.33-5.52-23.22-16.5-30.96-28.74-6.68-11.59-12.2-23.81-16.5-36.48-15.48-46.44-18.78-95.16-23.22-142.62v-28.74c-5.52 4.44-6.66 42-6.66 47.58-3.23 50.16-9.884 100.04-19.921 149.28-3.299 19.92-5.519 39.78-17.763 57.48 0 2.22 0 4.44 1.078 7.74 19.921 58.62 25.377 118.32 28.739 179.16v22.21c0 26.51-1.078 20.93 20.937 29.81 8.88 3.3 18.78 4.44 27.66 11.04 6.66 0 7.74-5.52 7.74-9.96l-3.3-36.48v-101.76c-1.08-17.76 2.22-35.4 4.44-52.02l.06-.06Z" fill="#C2BFBF"/></svg>

<svg width="2025" height="2031" viewBox="0 0 2025 2031" fill="none" xmlns="http://www.w3.org/2000/svg">
<path d="M999.526 6.02686L1053.7 107.788C1065.89 126.566 1079.08 143.188 1094.62 158.668C1140.19 203.669 1182.67 251.698 1221.76 302.427C1313.56 422.966 1375.48 556.829 1419.7 701.603C1446.22 790.041 1460.62 880.762 1461.7 972.499C1466.14 1246.76 1372.12 1482.25 1182.56 1677.97C1151.72 1709.01 1118.41 1737.48 1082.95 1763.11C1064.17 1763.11 1055.29 1748.71 1047.55 1735.45C1033.46 1710.86 1024.08 1683.86 1019.89 1655.83C1013.23 1622.65 1008.85 1589.47 1011.01 1555.21V1539.73C1009.49 1536.43 992.928 13.8302 999.526 6.02686V6.02686Z" fill="#599636"/>
<path d="M999.526 2.66452C997.305 -1.7764 995.085 1.58601 992.864 3.74303C993.943 25.9477 986.203 45.7415 974.085 64.6472C960.763 83.4259 943.126 97.8272 925.426 113.307C827.091 198.446 749.692 301.285 687.709 416.305C605.235 571.103 562.729 737.003 550.675 911.659C545.155 974.656 570.596 1196.96 590.453 1261.1C644.632 1431.37 741.952 1574.05 868.011 1697.89C898.97 1727.71 932.087 1755.37 966.346 1781.95C976.306 1781.95 977.384 1773.07 979.668 1766.47C984.035 1752.36 987.364 1737.94 989.629 1723.33L1011.83 1557.5L999.526 2.66452Z" fill="#6CAC48"/>
<path d="M1053.7 1830.49C1055.93 1805.11 1068.11 1784.05 1081.37 1763.05C1068.04 1757.53 1058.15 1746.55 1050.41 1734.31C1043.73 1722.72 1038.21 1710.5 1033.91 1697.83C1018.43 1651.39 1015.13 1602.67 1010.69 1555.21V1526.47C1005.17 1530.91 1004.03 1568.47 1004.03 1574.05C1000.8 1624.21 994.146 1674.09 984.109 1723.33C980.81 1743.25 978.59 1763.11 966.346 1780.81C966.346 1783.03 966.346 1785.25 967.424 1788.55C987.345 1847.17 992.801 1906.87 996.163 1967.71V1989.92C996.163 2016.43 995.085 2010.85 1017.1 2019.73C1025.98 2023.03 1035.88 2024.17 1044.76 2030.77C1051.42 2030.77 1052.5 2025.25 1052.5 2020.81L1049.2 1984.33V1882.57C1048.12 1864.81 1051.42 1847.17 1053.64 1830.55L1053.7 1830.49Z" fill="#C2BFBF"/>
</svg>
